dist/img/icon-card-working-us-3.svg

<svg width="96" height="97" viewBox="0 0 96 97" fill="none" xmlns="http://www.w3.org/2000/svg">
<rect width="96" height="97" rx="16" fill="#F4F5F6"/>
<g clip-path="url(#clip0_746_16610)">
<path d="M44.875 44.75C39.7056 44.75 35.5 40.5444 35.5 35.375C35.5 30.2056 39.7056 26 44.875 26C50.0444 26 54.25 30.2056 54.25 35.375C54.25 40.5444 50.0444 44.75 44.875 44.75ZM44.875 27.875C40.7388 27.875 37.375 31.2387 37.375 35.375C37.375 39.5113 40.7388 42.875 44.875 42.875C49.0113 42.875 52.375 39.5113 52.375 35.375C52.375 31.2387 49.0113 27.875 44.875 27.875Z" fill="#393939"/>
<path d="M43.9375 65.375H28.9375C28.42 65.375 28 64.955 28 64.4375V56.9375C28 52.2856 31.7856 48.5 36.4375 48.5H47.6875C48.205 48.5 48.625 48.92 48.625 49.4375C48.625 49.955 48.205 50.375 47.6875 50.375H36.4375C32.8187 50.375 29.875 53.3187 29.875 56.9375V63.5H43.9375C44.455 63.5 44.875 63.92 44.875 64.4375C44.875 64.955 44.455 65.375 43.9375 65.375Z" fill="#393939"/>
<path d="M59.875 63.25C57.4293 63.25 55.4375 61.2582 55.4375 58.8125C55.4375 56.3668 57.4293 54.375 59.875 54.375C62.3207 54.375 64.3125 56.3668 64.3125 58.8125C64.3125 61.2582 62.3207 63.25 59.875 63.25ZM59.875 55.75C58.1863 55.75 56.8125 57.1238 56.8125 58.8125C56.8125 60.5012 58.1863 61.875 59.875 61.875C61.5637 61.875 62.9375 60.5012 62.9375 58.8125C62.9375 57.1238 61.5637 55.75 59.875 55.75Z" fill="#393939" stroke="white" stroke-width="0.5"/>
<path d="M64.4725 70.1978L61.5838 70.9718C60.6493 71.2223 59.6863 70.7291 59.3445 69.8229L58.4977 67.5826C57.8834 67.4851 57.2785 67.3211 56.687 67.0914L54.8274 68.6127C54.0818 69.2278 52.997 69.171 52.3146 68.4862L50.201 66.3718C49.5168 65.6875 49.4641 64.6068 50.075 63.8588L51.5796 62.0192C51.4681 61.7482 51.3593 61.4435 51.2719 61.1175C51.1846 60.7915 51.126 60.4714 51.0875 60.1827L48.8647 59.3419C47.9616 58.9996 47.467 58.0373 47.7173 57.1026L48.4906 54.2146C48.7409 53.2799 49.6475 52.6934 50.6034 52.8488L52.9746 53.2364C53.3719 52.7417 53.8138 52.2972 54.2971 51.9056L53.9103 49.5421C53.7537 48.5882 54.3411 47.6796 55.2756 47.4292L58.1643 46.6552C59.0988 46.4048 60.0618 46.898 60.4036 47.8041L61.2504 50.0444C61.8665 50.1414 62.4719 50.3072 63.0611 50.5356L64.9208 49.0144C65.6714 48.4037 66.7516 48.4578 67.4335 49.1408L69.5471 51.2552C70.2313 51.9396 70.2841 53.0203 69.6731 53.7682L68.1686 55.6078C68.28 55.8788 68.3888 56.1836 68.4762 56.5096C68.5635 56.8356 68.6221 57.1557 68.6606 57.4443L70.8834 58.2852C71.7865 58.6274 72.2812 59.5897 72.0308 60.5245L71.2589 63.4101C71.008 64.3431 70.1042 64.9327 69.146 64.776L66.7749 64.3884C66.3775 64.8831 65.9356 65.3276 65.4524 65.7191L65.8378 68.085C65.9944 69.0388 65.4071 69.9474 64.4725 70.1978ZM56.2897 65.1014C56.4979 65.0456 56.7238 65.0627 56.9278 65.1575C57.6796 65.5074 58.4641 65.7184 59.2576 65.7892C59.6156 65.8214 59.9247 66.055 60.0518 66.3917L61.1003 69.1603L63.9891 68.3862L63.511 65.4648C63.4527 65.1096 63.6037 64.7528 63.8976 64.5459C64.5494 64.0879 65.1228 63.5111 65.5994 62.834C65.8078 62.5394 66.1636 62.3897 66.5171 62.4483L69.4488 62.9284L70.222 60.0405L67.462 58.9981C67.1251 58.871 66.8924 58.5606 66.8587 58.2028C66.8233 57.8027 66.7733 57.3987 66.6656 56.9967C66.5578 56.5946 66.3991 56.2198 66.2297 55.8556C66.0783 55.5293 66.1268 55.1455 66.3545 54.8652L68.2236 52.5824L66.11 50.468L63.8107 52.3478C63.5321 52.5758 63.149 52.6241 62.8213 52.4731C62.0713 52.1228 61.2886 51.9113 60.4915 51.8415C60.1335 51.8093 59.8244 51.5757 59.6973 51.239L58.6491 48.4645L55.7604 49.2385L56.2384 52.16C56.2967 52.5151 56.1458 52.8719 55.8518 53.0788C55.2 53.5369 54.6267 54.1137 54.15 54.7907C53.9435 55.0848 53.5881 55.2364 53.2323 55.1764L50.3007 54.6963L49.5274 57.5842L52.2875 58.6266C52.6244 58.7538 52.857 59.0641 52.8908 59.422C52.9262 59.8221 52.9762 60.226 53.0839 60.6281C53.1916 61.0301 53.3503 61.405 53.5197 61.7692C53.6712 62.0955 53.6226 62.4792 53.3949 62.7596L51.5258 65.0424L53.6394 67.1568L55.9388 65.277C56.0447 65.1942 56.1629 65.1354 56.2897 65.1014Z" fill="#83C150"/>
</g>
<defs>
<clipPath id="clip0_746_16610">
<rect width="45" height="45" fill="white" transform="translate(28 26)"/>
</clipPath>
</defs>
</svg>

<svg width="96" height="97" fill="none" xmlns="http://www.w3.org/2000/svg"><rect width="96" height="97" rx="16" fill="#F4F5F6"/><g clip-path="url(#clip0_746_16610)"><path d="M44.875 44.75c-5.17 0-9.375-4.206-9.375-9.375 0-5.17 4.206-9.375 9.375-9.375 5.17 0 9.375 4.206 9.375 9.375 0 5.17-4.206 9.375-9.375 9.375zm0-16.875c-4.136 0-7.5 3.364-7.5 7.5s3.364 7.5 7.5 7.5 7.5-3.364 7.5-7.5-3.364-7.5-7.5-7.5zm-.937 37.5h-15a.938.938 0 01-.938-.938v-7.5c0-4.651 3.786-8.437 8.438-8.437h11.25a.938.938 0 010 1.875h-11.25a6.57 6.57 0 00-6.563 6.563V63.5h14.063a.938.938 0 010 1.875z" fill="#393939"/><path d="M59.875 63.25a4.444 4.444 0 01-4.438-4.438 4.444 4.444 0 014.438-4.437 4.444 4.444 0 014.438 4.438 4.444 4.444 0 01-4.438 4.437zm0-7.5a3.066 3.066 0 00-3.063 3.063 3.066 3.066 0 003.063 3.062 3.066 3.066 0 003.063-3.063 3.066 3.066 0 00-3.063-3.062z" fill="#393939" stroke="#fff" stroke-width=".5"/><path d="M64.472 70.198l-2.888.774a1.868 1.868 0 01-2.24-1.15l-.846-2.24a8.81 8.81 0 01-1.811-.49l-1.86 1.52a1.865 1.865 0 01-2.512-.126L50.2 66.372a1.87 1.87 0 01-.126-2.513l1.505-1.84a7.457 7.457 0 01-.308-.901 7.44 7.44 0 01-.184-.935l-2.223-.841a1.87 1.87 0 01-1.148-2.24l.774-2.887a1.868 1.868 0 012.112-1.366l2.372.387a8.798 8.798 0 011.322-1.33l-.387-2.364a1.868 1.868 0 011.366-2.113l2.888-.774a1.868 1.868 0 012.24 1.15l.846 2.24a8.79 8.79 0 011.811.49l1.86-1.52a1.87 1.87 0 012.512.126l2.114 2.114a1.87 1.87 0 01.126 2.513l-1.504 1.84c.111.27.22.576.307.902.088.326.146.646.185.934l2.222.841a1.87 1.87 0 011.148 2.24l-.772 2.885a1.868 1.868 0 01-2.113 1.366l-2.371-.388c-.398.495-.84.94-1.323 1.331l.386 2.366a1.868 1.868 0 01-1.365 2.113zM56.29 65.1a.938.938 0 01.638.056c.752.35 1.536.561 2.33.632a.938.938 0 01.794.603L61.1 69.16l2.89-.774-.479-2.921a.939.939 0 01.387-.92 7.02 7.02 0 001.701-1.711.937.937 0 01.918-.386l2.932.48.773-2.887-2.76-1.043a.943.943 0 01-.603-.795 7.008 7.008 0 00-.193-1.206 7.011 7.011 0 00-.436-1.141.941.941 0 01.124-.99l1.87-2.284-2.114-2.114-2.3 1.88a.94.94 0 01-.989.125 6.915 6.915 0 00-2.33-.631.938.938 0 01-.794-.603l-1.048-2.774-2.889.773.478 2.922a.938.938 0 01-.386.919 7.025 7.025 0 00-1.702 1.712.932.932 0 01-.918.385l-2.931-.48-.774 2.888 2.76 1.043c.337.127.57.437.604.795.035.4.085.804.193 1.206.108.402.266.777.436 1.141a.941.941 0 01-.125.99l-1.87 2.283 2.114 2.115 2.3-1.88a.978.978 0 01.35-.176z" fill="#83C150"/></g><defs><clipPath id="clip0_746_16610"><path fill="#fff" transform="translate(28 26)" d="M0 0h45v45H0z"/></clipPath></defs></svg>
